X: 20
T:Sno
M:3/4
R:
L:1/8
Z:Alf 
K:C
|: G2 A2B2|c4 B2|A4 G2|c6|\
E4 A2|G4 E2|D4 C2|D6|
E4 F2|G4 G2|E4 C2|F4 E2|\
D4 B,2|C6-|C6-|C6:|
z2 C2 D2|E4 G2|c4 A2|B6-|\
B2 B2c2|d4 c2|B4 A2|G6-|
G4 A2|B4 c2|d4 e2|d4 c2|\
B4 A2|G6|F2 E2 F2|D6||
 G2 A2B2|c4 B2|A4 G2|c6|\
E4 A2|G4 E2|D4 C2|D6|
E4 F2|G4 G2|E4 C2|F4 E2|\
D4 B,2|C6-|C6-|C6|]
